icons/misc/hint.svg

<?xml version="1.0" encoding="UTF-8"?><svg id="Ebene_2" xmlns="http://www.w3.org/2000/svg" viewBox="0 0 11 11"><defs><style>.cls-1{fill:#4e6ab5;}</style></defs><g id="Ebene_1-2"><path class="cls-1" d="M0,0V11H11V0H0ZM10,10H1V1H10V10Z"/><path id="path1312" class="cls-1" d="M7.539,6.97l-1.462,1.461h-.929c-.511,0-.929-.006-.929-.012,0-.007,.486-.499,1.081-1.093,.606-.607,1.08-1.093,1.08-1.11,0-.027-.117-.029-2.19-.033l-2.19-.003v-1.376l2.182-.004c2.065-.004,2.182-.006,2.182-.033,0-.016-.471-.499-1.073-1.101-.59-.59-1.073-1.078-1.073-1.085s.418-.012,.929-.012h.929l1.462,1.461c.804,.804,1.462,1.465,1.462,1.47,0,.004-.658,.666-1.461,1.47Z"/></g></svg>

<svg xmlns="http://www.w3.org/2000/svg" id="Ebene_2" viewBox="0 0 11 11"><defs><style>.cls-1{fill:#4e6ab5}</style></defs><g id="Ebene_1-2"><path d="M0 0v11h11V0H0Zm10 10H1V1h9v9Z" class="cls-1"/><path id="path1312" d="M7.539 6.97 6.077 8.431h-.929c-.511 0-.929-.006-.929-.012 0-.007.486-.499 1.081-1.093.606-.607 1.08-1.093 1.08-1.11 0-.027-.117-.029-2.19-.033L2 6.18V4.804L4.182 4.8c2.065-.004 2.182-.006 2.182-.033 0-.016-.471-.499-1.073-1.101-.59-.59-1.073-1.078-1.073-1.085s.418-.012.929-.012h.929L7.538 4.03A179.82 179.82 0 0 1 9 5.5c0 .004-.658.666-1.461 1.47Z" class="cls-1"/></g></svg>
